assets/davinci-resolve-icon.svg

<svg width="79" height="74" viewBox="0 0 79 74" fill="none" xmlns="http://www.w3.org/2000/svg">
<path d="M40.6679 73.2697H38.3283C38.2188 73.2324 38.1109 73.2239 38.0014 73.2239C36.7522 73.168 35.5123 73.0764 34.2831 72.9204C31.9837 72.6442 29.7228 72.1747 27.5221 71.522C23.7453 70.3998 20.226 68.7895 16.9642 66.6911C13.94 64.7402 11.2642 62.44 8.93397 59.7906C6.18731 56.6802 4.04674 53.2479 2.52921 49.4762C1.17053 46.1269 0.357791 42.6587 0.109496 39.0789C0.100243 38.8856 0.0693991 38.6924 0 38.4992V34.7175C0.0693991 34.5515 0.0987009 34.3769 0.109496 34.2022C0.158847 33.3463 0.257548 32.4903 0.377839 31.6444C0.973129 27.5593 2.28092 23.6846 4.29349 20.0132C5.68147 17.4826 7.3671 15.128 9.34883 12.9552C11.312 10.8024 13.5128 8.8787 15.951 7.19542C19.9268 4.45295 24.2989 2.47481 29.0767 1.26102C31.3961 0.672737 33.7665 0.286271 36.1646 0.101626C36.5903 0.064411 37.0375 0.0930381 37.4632 0H41.4683C41.7752 0.0830186 42.0928 0.0372152 42.3997 0.064411C43.9867 0.193233 45.5628 0.377878 47.1281 0.662718C52.0555 1.56447 56.625 3.27637 60.8491 5.80558C64.1309 7.7651 67.0256 10.1297 69.5533 12.8808C71.5859 15.0893 73.3101 17.4912 74.7181 20.0848C76.3837 23.1493 77.5727 26.3598 78.2482 29.7364C78.6045 31.5213 78.8728 33.3248 78.8821 35.1469C78.8821 35.2672 78.9114 35.396 78.9222 35.5148V37.6862C78.8821 37.8236 78.8821 37.971 78.8728 38.1184C78.8728 38.4677 78.8728 38.8184 78.8435 39.1676C78.6646 41.3948 78.2883 43.5934 77.693 45.7647C76.5533 49.8412 74.7181 53.6229 72.1704 57.1096C70.2766 59.7047 68.0666 62.0421 65.5281 64.1118C63.0005 66.173 60.2338 67.9121 57.2296 69.3191C53.7689 70.938 50.1308 72.0616 46.3139 72.6771C44.8472 72.9161 43.3698 73.0721 41.8831 73.1551C41.4914 73.1967 41.075 73.1881 40.6679 73.2697V73.2697ZM24.7169 55.7871C25.3708 55.8057 26.1048 55.7313 26.8389 55.5853C29.0104 55.143 30.8548 54.224 32.2721 52.5952C33.1342 51.6018 33.859 50.5254 34.4836 49.3932C35.2177 48.0592 35.8315 46.6693 36.3667 45.2623C37.0205 43.5604 37.5757 41.8213 38.0029 40.0636C38.2404 39.0789 37.9736 38.462 36.8031 38.1227C35.3164 37.6905 33.8189 37.304 32.2922 36.9905C29.7645 36.4752 27.2168 36.1446 24.6182 36.2262C23.8841 36.2534 23.1515 36.3278 22.4267 36.4466C20.3247 36.7873 18.5403 37.689 17.083 39.1146C14.5939 41.5437 13.6038 44.4422 14.2176 47.7457C15.0997 52.4663 19.6014 55.8243 24.7169 55.7871V55.7871ZM28.9101 21.9455C28.8808 22.6355 29.0196 23.3898 29.2479 24.1441C29.6843 25.5798 30.4076 26.8952 31.2604 28.1376C33.2036 30.9631 35.6526 33.3821 38.3098 35.6279C38.5273 35.8125 38.7864 35.9685 39.064 36.0873C39.3416 36.2162 39.6192 36.2162 39.906 36.1059C40.1836 35.9957 40.4319 35.8397 40.6401 35.6365C41.5623 34.7905 42.4738 33.9432 43.3467 33.0686C44.5758 31.8262 45.7463 30.548 46.8074 29.1767C47.7697 27.9343 48.6318 26.6275 49.2656 25.2105C49.8995 23.802 50.2079 22.3492 49.9997 20.8219C49.6527 18.3013 48.493 16.1657 46.4203 14.491C43.9697 12.5143 41.1151 11.7228 37.9027 12.1637C32.6777 12.8822 28.8901 17.1519 28.9101 21.9455V21.9455ZM54.6664 55.7327C54.924 55.7241 55.3897 55.7327 55.8555 55.6683C58.9877 55.236 61.466 53.8276 63.2118 51.3628C64.5797 49.4218 65.1349 47.2677 64.8773 44.9589C64.6398 42.7961 63.6976 40.901 62.1014 39.3093C60.7134 37.9295 59.0571 36.9719 57.0553 36.5668C55.9542 36.3464 54.8345 36.2534 53.7149 36.2362C52.387 36.2176 51.0685 36.3278 49.7591 36.4938C47.142 36.8345 44.5835 37.4142 42.0666 38.1499C41.8091 38.2229 41.5716 38.3346 41.3634 38.4906C41.095 38.6924 40.947 38.9415 40.947 39.2635C40.947 39.5398 40.9763 39.816 41.0457 40.0923C41.2045 40.6448 41.3433 41.1958 41.5022 41.7398C42.2363 44.2246 43.1277 46.6536 44.3475 48.9724C45.0508 50.3064 45.8651 51.5674 46.9061 52.6996C47.6988 53.5556 48.621 54.2541 49.7221 54.7422C51.2273 55.4106 52.7926 55.7699 54.6664 55.7327Z" fill="white"/>
</svg>

<svg xmlns="http://www.w3.org/2000/svg" width="79" height="74" fill="none" xmlns:v="https://vecta.io/nano"><path d="M40.668 73.27h-2.34a.99.99 0 0 0-.327-.046l-3.718-.303a40.95 40.95 0 0 1-6.761-1.398c-3.777-1.122-7.296-2.733-10.558-4.831-3.024-1.951-5.7-4.251-8.03-6.901-2.747-3.11-4.887-6.543-6.405-10.314C1.171 46.127.358 42.659.109 39.079c-.009-.193-.04-.386-.109-.58v-3.782c.069-.166.099-.341.109-.515.049-.856.148-1.712.268-2.558.595-4.085 1.903-7.96 3.916-11.631 1.388-2.531 3.074-4.885 5.055-7.058a38.54 38.54 0 0 1 6.602-5.76c3.976-2.742 8.348-4.721 13.126-5.934 2.319-.588 4.69-.975 7.088-1.159.426-.037.873-.009 1.299-.102h4.005c.307.083.624.037.931.064 1.587.129 3.163.313 4.728.598 4.927.902 9.497 2.614 13.721 5.143 3.282 1.96 6.176 4.324 8.704 7.075 2.033 2.208 3.757 4.61 5.165 7.204 1.666 3.064 2.855 6.275 3.53 9.652.356 1.785.625 3.588.634 5.411 0 .12.029.249.04.368v2.171c-.04.137-.04.285-.049.432 0 .349 0 .7-.029 1.049-.179 2.227-.555 4.426-1.151 6.597-1.14 4.077-2.975 7.858-5.523 11.345-1.894 2.595-4.104 4.932-6.642 7.002-2.528 2.061-5.294 3.8-8.298 5.207a41.07 41.07 0 0 1-10.916 3.358 42.13 42.13 0 0 1-4.431.478c-.392.042-.808.033-1.215.115h0zM24.717 55.787c.654.019 1.388-.056 2.122-.202 2.172-.442 4.016-1.361 5.433-2.99.862-.993 1.587-2.07 2.212-3.202.734-1.334 1.348-2.724 1.883-4.131.654-1.702 1.209-3.441 1.636-5.199.238-.985-.029-1.602-1.2-1.941-1.487-.432-2.984-.819-4.511-1.132-2.528-.515-5.075-.846-7.674-.764a17.58 17.58 0 0 0-2.192.22c-2.102.341-3.886 1.242-5.344 2.668-2.489 2.429-3.479 5.328-2.865 8.631.882 4.721 5.384 8.079 10.499 8.041h0zm4.193-33.842c-.029.69.11 1.444.338 2.199.436 1.436 1.16 2.751 2.012 3.993 1.943 2.826 4.392 5.245 7.049 7.49a2.99 2.99 0 0 0 .754.459c.278.129.555.129.842.019a2.21 2.21 0 0 0 .734-.469c.922-.846 1.834-1.693 2.707-2.568 1.229-1.242 2.4-2.521 3.461-3.892.962-1.242 1.824-2.549 2.458-3.966.634-1.408.942-2.861.734-4.389-.347-2.521-1.507-4.656-3.579-6.331-2.451-1.977-5.305-2.768-8.518-2.327-5.225.718-9.013 4.988-8.993 9.782h0zm25.756 33.787c.258-.009.723 0 1.189-.064 3.132-.432 5.611-1.841 7.356-4.306a9.07 9.07 0 0 0 1.666-6.404c-.238-2.163-1.18-4.058-2.776-5.65-1.388-1.38-3.044-2.337-5.046-2.742-1.101-.22-2.221-.313-3.34-.331-1.328-.019-2.646.092-3.956.258-2.617.341-5.176.92-7.692 1.656-.258.073-.495.185-.703.341-.268.202-.416.451-.416.773 0 .276.029.553.099.829l.457 1.648c.734 2.485 1.625 4.914 2.845 7.233.703 1.334 1.518 2.595 2.559 3.727.793.856 1.715 1.555 2.816 2.043a11.22 11.22 0 0 0 4.944.991z" fill="#fff"/></svg>
